; generated by SuperSlicer 2.4 on 2023-05-04 at 21:57:19 UTC


;
;

;
;
; 

; external perimeters extrusion width = 0.43mm
; perimeters extrusion width = 0.48mm
; infill extrusion width = 0.46mm
; solid infill extrusion width = 0.48mm
; top infill extrusion width = 0.46mm
; first layer extrusion width = 0.56mm

; external perimeters extrusion width = 0.43mm
; perimeters extrusion width = 0.48mm
; infill extrusion width = 0.46mm
; solid infill extrusion width = 0.48mm
; top infill extrusion width = 0.46mm
; first layer extrusion width = 0.56mm

; object:{"name":"xyzCalibration_cube","id":"xyzCalibration_cube id:0 copy 0","object_center":[122.500000,116.500000,0.000000],"boundingbox_center":[122.500000,116.500000,5.000000],"boundingbox_size":[10.000000,10.000000,10.000000]}
; object:{"name":"xyzCalibration_cube","id":"xyzCalibration_cube id:1 copy 0","object_center":[122.500001,128.500000,0.000000],"boundingbox_center":[122.500001,128.500000,5.000000],"boundingbox_size":[10.000000,10.000000,10.000000]}
; plater:{"center":[122.500000,122.500000,0.000000],"boundingbox_center":[122.500000,122.500000,5.000000],"boundingbox_size":[10.000001,22.000000,10.000000]}

;TYPE:Custom
M117
START_PRINT BED=60 EXTRUDER=207
; Filament gcode
;_TOOLCHANGE 0
M107
;LAYER_CHANGE
;Z:0.3
;HEIGHT:0.3
TIMELAPSE_TAKE_FRAME
G1 Z0.3 F2400
SET_PRINT_STATS_INFO CURRENT_LAYER=1
G1 E-1.25 F3000
G1 X115.427 Y108.602 F9000
G1 E0 F3000
;TYPE:Skirt
;WIDTH:0.44
G1 F2400
G1 X114.331 Y109.871 E0.07854
G1 X113.937 Y111.5 E0.15709
G1 X113.937 Y133.5 E1.18777
G1 X114.602 Y135.573 E1.28978
G1 X115.871 Y136.669 E1.36832
G1 X117.5 Y137.063 E1.44687
G1 X127.5 Y137.063 E1.91536
G1 X129.573 Y136.398 E2.01736
G1 X130.669 Y135.129 E2.09591
G1 X131.063 Y133.5 E2.17445
G1 X131.063 Y111.5 E3.20514
G1 X130.398 Y109.427 E3.30714
G1 X129.129 Y108.331 E3.38568
G1 X127.5 Y107.937 E3.46423
G1 X117.5 Y107.937 E3.93272
G1 X115.484 Y108.583 E4.03191
G92 E0
G1 E-0.3125 F3000
;WIPE_START
G1 F7200
G1 X114.331 Y109.871 E-0.99651
G1 X114.208 Y110.378 E-1.20312
;WIPE_END
G1 E-1.25 F3000
G1 X115.76 Y108.842 F9000
G1 E0 F3000
G1 F2400
G1 X114.706 Y109.965 E0.07216
G1 X114.312 Y111.5 E0.14638
G1 X114.312 Y133.5 E1.17707
G1 X114.81 Y135.21 E1.26051
G1 X115.965 Y136.294 E1.33474
G1 X117.5 Y136.688 E1.40897
G1 X127.5 Y136.688 E1.87746
G1 X129.21 Y136.19 E1.9609
G1 X130.294 Y135.035 E2.03513
G1 X130.688 Y133.5 E2.10935
G1 X130.688 Y111.5 E3.14004
G1 X130.19 Y109.79 E3.22348
G1 X129.035 Y108.706 E3.29771
G1 X127.5 Y108.312 E3.37194
G1 X117.5 Y108.312 E3.84043
G1 X115.805 Y108.805 E3.92313
M104 S207 ; set temperature
G92 E0
G1 E-0.3125 F3000
;WIPE_START
G1 F7200
G1 X114.706 Y109.965 E-0.94505
G1 X114.544 Y110.597 E-1.20313
;WIPE_END
G1 E-1.25 F3000
; printing object xyzCalibration_cube id:0 copy 0
G1 X117.98 Y112.126 F9000
G1 E0 F3000
;TYPE:External perimeter
;WIDTH:0.56
G1 X117.78 Y111.78
G1 X127.22 Y111.78 E0.6419
G1 X127.22 Y121.22 E1.2838
G1 X117.78 Y121.22 E1.9257
G1 X117.78 Y111.84 E2.56353
;WIPE_START
G1 X118.126 Y111.98 F9000
;WIPE_END
G92 E0
G1 E-0.3125 F3000
;WIPE_START
G1 F7200
G1 X120.376 Y111.98 E-1.20313
;WIPE_END
G1 E-1.25 F3000
G1 X126.069 Y111.929 F9000
G1 E0 F3000
;TYPE:Solid infill
;WIDTH:0.555344
G1 X126.858 Y112.717 E0.07522
G1 X126.858 Y113.418 E0.12248
G1 X125.582 Y112.142 E0.24422
G1 X124.881 Y112.142 E0.29149
G1 X126.858 Y114.119 E0.48007
G1 X126.858 Y114.82 E0.52733
G1 X124.18 Y112.142 E0.78275
G1 X123.479 Y112.142 E0.83002
G1 X126.858 Y115.521 E1.15228
G1 X126.858 Y116.222 E1.19954
G1 X122.778 Y112.142 E1.58865
G1 X122.077 Y112.142 E1.63591
G1 X126.858 Y116.923 E2.09186
G1 X126.858 Y117.624 E2.13912
G1 X121.376 Y112.142 E2.66191
G1 X120.675 Y112.142 E2.70918
G1 X126.858 Y118.325 E3.29881
G1 X126.858 Y119.026 E3.34607
G1 X119.974 Y112.142 E4.00255
G1 X119.273 Y112.142 E4.04981
G1 X126.858 Y119.727 E4.77312
G1 X126.858 Y120.427 E4.82039
G1 X118.573 Y112.142 E5.61055
G1 X118.142 Y112.142 E5.63959
G1 X118.142 Y112.412 E5.65781
G1 X126.588 Y120.858 E6.46328
G1 X125.887 Y120.858 E6.51055
G1 X118.142 Y113.113 E7.24918
G1 X118.142 Y113.814 E7.29645
G1 X125.186 Y120.858 E7.96824
G1 X124.485 Y120.858 E8.0155
G1 X118.142 Y114.515 E8.62045
G1 X118.142 Y115.216 E8.66772
G1 X123.784 Y120.858 E9.20582
G1 X123.084 Y120.858 E9.25309
G1 X118.142 Y115.916 E9.72435
G1 X118.142 Y116.617 E9.77162
G1 X122.383 Y120.858 E10.17604
G1 X121.682 Y120.858 E10.22331
G1 X118.142 Y117.318 E10.56089
G1 X118.142 Y118.019 E10.60815
G1 X120.981 Y120.858 E10.87889
G1 X120.28 Y120.858 E10.92616
G1 X118.142 Y118.72 E11.13005
G1 X118.142 Y119.421 E11.17732
G1 X119.579 Y120.858 E11.31437
G1 X118.878 Y120.858 E11.36164
G1 X118.142 Y120.122 E11.43185
G1 X118.142 Y120.823 E11.47912
G1 X118.39 Y121.071 E11.50281
G92 E0
G1 E-0.3125
;WIPE_START
G1 F7200
G1 X118.142 Y120.823 E-0.4516
G1 X118.142 Y120.122 E-0.72904
G1 X118.878 Y120.858 E-1.1412
G1 X119.034 Y120.858 E-1.20313
;WIPE_END
G1 E-1.25 F3000
; stop printing object xyzCalibration_cube id:0 copy 0
; printing object xyzCalibration_cube id:1 copy 0
G1 X117.98 Y124.126 F9000
G1 E0 F3000
;TYPE:External perimeter
;WIDTH:0.56
G1 X117.78 Y123.78
G1 X127.22 Y123.78 E0.6419
G1 X127.22 Y133.22 E1.2838
G1 X117.78 Y133.22 E1.9257
G1 X117.78 Y123.84 E2.56353
;WIPE_START
G1 X118.126 Y123.98 F9000
;WIPE_END
G92 E0
G1 E-0.3125 F3000
;WIPE_START
G1 F7200
G1 X120.376 Y123.98 E-1.20313
;WIPE_END
G1 E-1.25 F3000
G1 X126.069 Y123.929 F9000
G1 E0 F3000
;TYPE:Solid infill
;WIDTH:0.555344
G1 X126.858 Y124.717 E0.07522
G1 X126.858 Y125.418 E0.12248
G1 X125.582 Y124.142 E0.24422
G1 X124.881 Y124.142 E0.29149
G1 X126.858 Y126.119 E0.48007
G1 X126.858 Y126.82 E0.52733
G1 X124.18 Y124.142 E0.78275
G1 X123.479 Y124.142 E0.83002
G1 X126.858 Y127.521 E1.15228
G1 X126.858 Y128.222 E1.19954
G1 X122.778 Y124.142 E1.58865
G1 X122.077 Y124.142 E1.63591
G1 X126.858 Y128.923 E2.09186
G1 X126.858 Y129.624 E2.13912
G1 X121.376 Y124.142 E2.66191
G1 X120.675 Y124.142 E2.70918
G1 X126.858 Y130.325 E3.29881
G1 X126.858 Y131.026 E3.34607
G1 X119.974 Y124.142 E4.00255
G1 X119.273 Y124.142 E4.04981
G1 X126.858 Y131.727 E4.77312
G1 X126.858 Y132.427 E4.82039
G1 X118.573 Y124.142 E5.61055
G1 X118.142 Y124.142 E5.63959
G1 X118.142 Y124.412 E5.65781
G1 X126.588 Y132.858 E6.46328
G1 X125.887 Y132.858 E6.51055
G1 X118.142 Y125.113 E7.24918
G1 X118.142 Y125.814 E7.29645
G1 X125.186 Y132.858 E7.96824
G1 X124.485 Y132.858 E8.0155
G1 X118.142 Y126.515 E8.62045
G1 X118.142 Y127.216 E8.66772
G1 X123.784 Y132.858 E9.20582
G1 X123.084 Y132.858 E9.25309
G1 X118.142 Y127.916 E9.72435
G1 X118.142 Y128.617 E9.77162
G1 X122.383 Y132.858 E10.17604
G1 X121.682 Y132.858 E10.22331
G1 X118.142 Y129.318 E10.56089
G1 X118.142 Y130.019 E10.60815
G1 X120.981 Y132.858 E10.87889
G1 X120.28 Y132.858 E10.92616
G1 X118.142 Y130.72 E11.13005
G1 X118.142 Y131.421 E11.17732
G1 X119.579 Y132.858 E11.31437
G1 X118.878 Y132.858 E11.36164
G1 X118.142 Y132.122 E11.43185
G1 X118.142 Y132.823 E11.47912
G1 X118.39 Y133.071 E11.50281
M106 S255
;LAYER_CHANGE
;Z:0.6
;HEIGHT:0.3
TIMELAPSE_TAKE_FRAME
; stop printing object xyzCalibration_cube id:1 copy 0
G1 Z0.6 F2400
SET_PRINT_STATS_INFO CURRENT_LAYER=2
M104 S205 ; set temperature
M140 S60 ; set bed temperature
G92 E0
G1 E-1.25 F3000
; printing object xyzCalibration_cube id:0 copy 0
G1 X118.11 Y120.89 F9000
G1 E0 F3000
;TYPE:Internal perimeter
;WIDTH:0.484
G1 F9000
G1 X118.11 Y112.11 E0.45956
G1 X126.89 Y112.11 E0.91912
G1 X126.89 Y120.89 E1.37868
G1 X118.17 Y120.89 E1.8351
G92 E0
G1 E-0.3125 F3000
;WIPE_START
G1 F7200
G1 X118.154 Y118.64 E-1.20313
;WIPE_END
G1 E-1.25 F3000
G1 X118.062 Y121.084 F9000
G1 E0 F3000
;TYPE:External perimeter
;WIDTH:0.432
G1 F7200
G1 X117.716 Y121.284
G1 X117.716 Y111.716 E0.43871
G1 X127.284 Y111.716 E0.87741
G1 X127.284 Y121.284 E1.31612
G1 X117.776 Y121.284 E1.75208
;WIPE_START
G1 X117.916 Y120.938 F9000
;WIPE_END
G92 E0
G1 E-0.3125 F3000
;WIPE_START
G1 F7200
G1 X117.916 Y118.688 E-1.20313
;WIPE_END
G1 E-1.25 F3000
G1 X125.916 Y120.765 F9000
G1 E0 F3000
;TYPE:Solid infill
;WIDTH:0.484307
G1 F7200
G1 X126.584 Y120.097 E0.04946
G1 X126.584 Y119.503 E0.08054
G1 X125.503 Y120.584 E0.16059
G1 X124.91 Y120.584 E0.19167
G1 X126.584 Y118.91 E0.31567
G1 X126.584 Y118.316 E0.34674
G1 X124.316 Y120.584 E0.51469
G1 X123.723 Y120.584 E0.54577
G1 X126.584 Y117.723 E0.75767
G1 X126.584 Y117.13 E0.78875
G1 X123.13 Y120.584 E1.04461
G1 X122.536 Y120.584 E1.07568
G1 X126.584 Y116.536 E1.37549
G1 X126.584 Y115.943 E1.40657
G1 X121.943 Y120.584 E1.75032
G1 X121.349 Y120.584 E1.7814
G1 X126.584 Y115.349 E2.16911
G1 X126.584 Y114.756 E2.20019
G1 X120.756 Y120.584 E2.63184
G1 X120.162 Y120.584 E2.66292
G1 X126.584 Y114.162 E3.13853
G1 X126.584 Y113.569 E3.16961
G1 X119.569 Y120.584 E3.68917
G1 X118.976 Y120.584 E3.72025
G1 X126.584 Y112.976 E4.28376
G1 X126.584 Y112.416 E4.31307
G1 X126.55 Y112.416 E4.31484
G1 X118.416 Y120.55 E4.91729
G1 X118.416 Y119.957 E4.94837
G1 X125.957 Y112.416 E5.50687
G1 X125.363 Y112.416 E5.53795
G1 X118.416 Y119.363 E6.0525
G1 X118.416 Y118.77 E6.08358
G1 X124.77 Y112.416 E6.55418
G1 X124.177 Y112.416 E6.58526
G1 X118.416 Y118.177 E7.01191
G1 X118.416 Y117.583 E7.04298
G1 X123.583 Y112.416 E7.42568
G1 X122.99 Y112.416 E7.45676
G1 X118.416 Y116.99 E7.7955
G1 X118.416 Y116.396 E7.82658
G1 X122.396 Y112.416 E8.12138
G1 X121.803 Y112.416 E8.15246
G1 X118.416 Y115.803 E8.4033
G1 X118.416 Y115.209 E8.43438
G1 X121.209 Y112.416 E8.64127
G1 X120.616 Y112.416 E8.67235
G1 X118.416 Y114.616 E8.83529
G1 X118.416 Y114.023 E8.86637
G1 X120.023 Y112.416 E8.98536
G1 X119.429 Y112.416 E9.01643
G1 X118.416 Y113.429 E9.09147
G1 X118.416 Y112.836 E9.12255
G1 X119.016 Y112.235 E9.167
G92 E0
G1 E-0.3125 F3000
;WIPE_START
G1 F7200
G1 X118.416 Y112.836 E-0.64847
G1 X118.416 Y113.429 E-0.88337
G1 X118.987 Y112.858 E-1.20312
;WIPE_END
G1 E-1.25 F3000
; stop printing object xyzCalibration_cube id:0 copy 0
; printing object xyzCalibration_cube id:1 copy 0
G1 X118.11 Y124.11 F9000
G1 E0 F3000
;TYPE:Internal perimeter
;WIDTH:0.484
G1 F9000
G1 X126.89 Y124.11 E0.45956
G1 X126.89 Y132.89 E0.91912
G1 X118.11 Y132.89 E1.37868
G1 X118.11 Y124.17 E1.8351
G92 E0
G1 E-0.3125 F3000
;WIPE_START
G1 F7200
G1 X120.36 Y124.154 E-1.20313
;WIPE_END
G1 E-1.25 F3000
G1 X117.916 Y124.062 F9000
G1 E0 F3000
;TYPE:External perimeter
;WIDTH:0.432
G1 F7200
G1 X117.716 Y123.716
G1 X127.284 Y123.716 E0.43871
G1 X127.284 Y133.284 E0.87741
G1 X117.716 Y133.284 E1.31612
G1 X117.716 Y123.776 E1.75208
;WIPE_START
G1 X118.062 Y123.916 F9000
;WIPE_END
G92 E0
G1 E-0.3125 F3000
;WIPE_START
G1 F7200
G1 X120.312 Y123.916 E-1.20313
;WIPE_END
G1 E-1.25 F3000
G1 X119.016 Y124.235 F9000
G1 E0 F3000
;TYPE:Solid infill
;WIDTH:0.484307
G1 F7200
G1 X118.416 Y124.836 E0.04445
G1 X118.416 Y125.429 E0.07553
G1 X119.429 Y124.416 E0.15057
G1 X120.023 Y124.416 E0.18165
G1 X118.416 Y126.023 E0.30063
G1 X118.416 Y126.616 E0.33171
G1 X120.616 Y124.416 E0.49465
G1 X121.209 Y124.416 E0.52573
G1 X118.416 Y127.209 E0.73262
G1 X118.416 Y127.803 E0.7637
G1 X121.803 Y124.416 E1.01454
G1 X122.396 Y124.416 E1.04562
G1 X118.416 Y128.396 E1.34042
G1 X118.416 Y128.99 E1.3715
G1 X122.99 Y124.416 E1.71024
G1 X123.583 Y124.416 E1.74132
G1 X118.416 Y129.583 E2.12402
G1 X118.416 Y130.177 E2.15509
G1 X124.177 Y124.416 E2.58174
G1 X124.77 Y124.416 E2.61282
G1 X118.416 Y130.77 E3.08342
G1 X118.416 Y131.363 E3.1145
G1 X125.363 Y124.416 E3.62905
G1 X125.957 Y124.416 E3.66013
G1 X118.416 Y131.957 E4.21863
G1 X118.416 Y132.55 E4.24971
G1 X126.55 Y124.416 E4.85216
G1 X126.584 Y124.416 E4.85393
G1 X126.584 Y124.976 E4.88324
G1 X118.976 Y132.584 E5.44675
G1 X119.569 Y132.584 E5.47783
G1 X126.584 Y125.569 E5.99739
G1 X126.584 Y126.162 E6.02847
G1 X120.162 Y132.584 E6.50408
G1 X120.756 Y132.584 E6.53516
G1 X126.584 Y126.756 E6.96681
G1 X126.584 Y127.349 E6.99789
G1 X121.349 Y132.584 E7.3856
G1 X121.943 Y132.584 E7.41668
G1 X126.584 Y127.943 E7.76043
G1 X126.584 Y128.536 E7.79151
G1 X122.536 Y132.584 E8.09132
G1 X123.13 Y132.584 E8.12239
G1 X126.584 Y129.13 E8.37825
G1 X126.584 Y129.723 E8.40933
G1 X123.723 Y132.584 E8.62123
G1 X124.316 Y132.584 E8.65231
G1 X126.584 Y130.316 E8.82026
G1 X126.584 Y130.91 E8.85134
G1 X124.91 Y132.584 E8.97533
G1 X125.503 Y132.584 E9.00641
G1 X126.584 Y131.503 E9.08646
G1 X126.584 Y132.097 E9.11754
G1 X125.916 Y132.765 E9.167
;LAYER_CHANGE
;Z:0.9
;HEIGHT:0.3
TIMELAPSE_TAKE_FRAME
; stop printing object xyzCalibration_cube id:1 copy 0
G1 Z0.9 F2400
SET_PRINT_STATS_INFO CURRENT_LAYER=3
G92 E0
G1 E-1.25 F3000
; printing object xyzCalibration_cube id:0 copy 0
G1 X126.89 Y120.89 F9000
G1 E0 F3000
;TYPE:Internal perimeter
;WIDTH:0.484
G1 F6728
G1 X118.11 Y120.89 E0.45956
G1 X118.11 Y112.11 E0.91912
G1 X126.89 Y112.11 E1.37868
G1 X126.89 Y120.83 E1.8351
G92 E0
G1 E-0.3125 F3000
;WIPE_START
G1 F7200
G1 X124.64 Y120.846 E-1.20313
;WIPE_END
G1 E-1.25 F3000
G1 X127.084 Y120.938 F9000
G1 E0 F3000
;TYPE:External perimeter
;WIDTH:0.432
G1 F6728
G1 X127.284 Y121.284
G1 X117.716 Y121.284 E0.43871
G1 X117.716 Y111.716 E0.87741
G1 X127.284 Y111.716 E1.31612
G1 X127.284 Y121.224 E1.75208
;WIPE_START
G1 X126.938 Y121.084 F9000
;WIPE_END
G92 E0
G1 E-0.3125 F3000
;WIPE_START
G1 F7200
G1 X124.688 Y121.084 E-1.20313
;WIPE_END
G1 E-1.25 F3000
G1 X126.765 Y113.084 F9000
G1 E0 F3000
;TYPE:Solid infill
;WIDTH:0.484307
G1 F6728
G1 X126.097 Y112.416 E0.04946
G1 X125.503 Y112.416 E0.08054
G1 X126.584 Y113.497 E0.16059
G1 X126.584 Y114.09 E0.19167
G1 X124.91 Y112.416 E0.31567
G1 X124.316 Y112.416 E0.34674
G1 X126.584 Y114.684 E0.51469
G1 X126.584 Y115.277 E0.54577
G1 X123.723 Y112.416 E0.75767
G1 X123.13 Y112.416 E0.78875
G1 X126.584 Y115.87 E1.04461
G1 X126.584 Y116.464 E1.07568
G1 X122.536 Y112.416 E1.37549
G1 X121.943 Y112.416 E1.40657
G1 X126.584 Y117.057 E1.75032
G1 X126.584 Y117.651 E1.7814
G1 X121.349 Y112.416 E2.16911
G1 X120.756 Y112.416 E2.20019
G1 X126.584 Y118.244 E2.63184
G1 X126.584 Y118.838 E2.66292
G1 X120.162 Y112.416 E3.13853
G1 X119.569 Y112.416 E3.16961
G1 X126.584 Y119.431 E3.68917
G1 X126.584 Y120.024 E3.72025
G1 X118.976 Y112.416 E4.28376
G1 X118.416 Y112.416 E4.31307
G1 X118.416 Y112.45 E4.31484
G1 X126.55 Y120.584 E4.91729
G1 X125.957 Y120.584 E4.94837
G1 X118.416 Y113.043 E5.50687
G1 X118.416 Y113.637 E5.53795
G1 X125.363 Y120.584 E6.0525
G1 X124.77 Y120.584 E6.08358
G1 X118.416 Y114.23 E6.55418
G1 X118.416 Y114.823 E6.58526
G1 X124.177 Y120.584 E7.01191
G1 X123.583 Y120.584 E7.04298
G1 X118.416 Y115.417 E7.42568
G1 X118.416 Y116.01 E7.45676
G1 X122.99 Y120.584 E7.7955
G1 X122.396 Y120.584 E7.82658
G1 X118.416 Y116.604 E8.12138
G1 X118.416 Y117.197 E8.15246
G1 X121.803 Y120.584 E8.4033
G1 X121.209 Y120.584 E8.43438
G1 X118.416 Y117.791 E8.64127
G1 X118.416 Y118.384 E8.67235
G1 X120.616 Y120.584 E8.83529
G1 X120.023 Y120.584 E8.86637
G1 X118.416 Y118.977 E8.98536
G1 X118.416 Y119.571 E9.01643
G1 X119.429 Y120.584 E9.09147
G1 X118.836 Y120.584 E9.12255
G1 X118.235 Y119.984 E9.167
G92 E0
G1 E-0.3125 F3000
;WIPE_START
G1 F7200
G1 X118.836 Y120.584 E-0.64847
G1 X119.429 Y120.584 E-0.88337
G1 X118.858 Y120.013 E-1.20312
;WIPE_END
G1 E-1.25 F3000
; stop printing object xyzCalibration_cube id:0 copy 0
; printing object xyzCalibration_cube id:1 copy 0
G1 X118.11 Y124.11 F9000
G1 E0 F3000
;TYPE:Internal perimeter
;WIDTH:0.484
G1 F6728
G1 X126.89 Y124.11 E0.45956
G1 X126.89 Y132.89 E0.91912
G1 X118.11 Y132.89 E1.37868
G1 X118.11 Y124.17 E1.8351
G92 E0
G1 E-0.3125 F3000
;WIPE_START
G1 F7200
G1 X120.36 Y124.154 E-1.20313
;WIPE_END
G1 E-1.25 F3000
G1 X117.916 Y124.062 F9000
G1 E0 F3000
;TYPE:External perimeter
;WIDTH:0.432
G1 F6728
G1 X117.716 Y123.716
G1 X127.284 Y123.716 E0.43871
G1 X127.284 Y133.284 E0.87741
G1 X117.716 Y133.284 E1.31612
G1 X117.716 Y123.776 E1.75208
;WIPE_START
G1 X118.062 Y123.916 F9000
;WIPE_END
G92 E0
G1 E-0.3125 F3000
;WIPE_START
G1 F7200
G1 X120.312 Y123.916 E-1.20313
;WIPE_END
G1 E-1.25 F3000
G1 X118.235 Y131.984 F9000
G1 E0 F3000
;TYPE:Solid infill
;WIDTH:0.484307
G1 F6728
G1 X118.836 Y132.584 E0.04445
G1 X119.429 Y132.584 E0.07553
G1 X118.416 Y131.571 E0.15057
G1 X118.416 Y130.977 E0.18165
